src/assets/burger2.svg

<svg width="123" height="106" viewBox="0 0 123 106" fill="none" xmlns="http://www.w3.org/2000/svg">
<g filter="url(#filter0_d_340_59975)">
<path fill-rule="evenodd" clip-rule="evenodd" d="M58.2301 0.214009C39.9872 1.66508 24.6976 10.3493 18.3239 22.8803C15.1672 29.0863 14.8656 34.5748 17.5163 37.5752C18.8882 39.1282 19.2056 39.2265 23.6525 39.4757C34.5397 40.0859 99.2857 40.1043 106.032 39.4992C109.077 39.2258 110.527 38.2334 111.682 35.632C113.3 31.988 111.631 25.2355 107.626 19.2244C105.891 16.6198 101.413 12.1295 98.6045 10.1776C87.8796 2.72448 72.9597 -0.957455 58.2301 0.214009ZM103.496 42.5804C103.221 42.6905 102.995 42.8924 102.995 43.0289C102.995 43.7315 108.404 48.5491 111.124 50.2683C112.378 51.0609 114.188 51.4628 116.722 51.511C117.992 51.5351 118.449 51.4579 118.738 51.1699C119.088 50.8215 119.088 50.7711 118.736 50.3837C118.529 50.156 117.678 49.5974 116.845 49.1423C116.012 48.6874 114.447 47.6473 113.367 46.8311C110.106 44.3661 109.057 43.7343 107.268 43.1596C105.141 42.4763 104.141 42.3228 103.496 42.5804ZM18.6989 43.1698C13.1964 43.8804 7.36717 46.3753 4.77949 49.127L4 49.956L4.77949 49.8076C7.31037 49.3254 9.70785 48.9787 12.4445 48.6994L15.5438 48.3829L18.4577 46.9099C20.0601 46.0995 22.4071 45.0651 23.6729 44.6111C24.9388 44.1571 25.9689 43.6875 25.9622 43.5677C25.939 43.1589 20.914 42.8835 18.6989 43.1698ZM49.6557 43.1844C49.7782 43.3078 51.2815 43.9316 52.9964 44.5705C61.0645 47.5765 65.4856 50.6246 67.469 54.5493C67.8873 55.3766 68.4015 56.1191 68.612 56.1997C68.8224 56.2802 70.2057 56.2401 71.6856 56.1105C73.1657 55.9809 75.2205 55.8526 76.2518 55.8258C77.3754 55.7965 78.1594 55.6789 78.2079 55.5329C78.2525 55.3986 77.4587 54.6543 76.4441 53.879C73.7669 51.8327 71.1596 49.6083 68.2919 46.9236C65.5061 44.3155 64.7444 43.8384 62.7917 43.4787C60.9875 43.1465 49.3593 42.886 49.6557 43.1844ZM76.381 43.2384C74.4212 43.3158 72.6422 43.4581 72.4279 43.5546C72.2052 43.6549 72.0382 43.9718 72.0382 44.2942C72.0382 44.7274 72.8346 45.6457 75.4666 48.2471C78.8985 51.6392 79.9491 52.4492 80.5958 52.2018C80.786 52.1292 81.4813 51.3059 82.141 50.3726C83.2975 48.736 85.1641 46.8378 87.5861 44.8355C89.5983 43.1714 89.211 42.9965 83.647 43.0573C81.6105 43.0795 78.3409 43.1611 76.381 43.2384ZM34.6227 45.5999C30.1369 46.2792 25.3843 47.7019 22.301 49.2883C20.3245 50.3051 19.645 51.0447 20.1889 51.5868C20.3726 51.7697 21.232 52.0242 22.0988 52.1525C23.8202 52.407 24.0409 52.3387 27.243 50.5598C27.9125 50.1879 28.7692 49.8961 29.1917 49.8961C30.3416 49.8961 30.1768 50.5803 28.6394 52.19C27.9209 52.9421 27.2263 53.7627 27.096 54.0134C26.6268 54.9159 27.4056 55.3476 30.0886 55.6724C34.1083 56.1591 60.557 56.3908 64.633 55.9749C66.0904 55.8264 66.1216 55.5397 64.8059 54.3858C62.6222 52.4705 54.9333 49.0615 48.4555 47.1364C42.2693 45.2981 39.0084 44.9358 34.6227 45.5999ZM92.4162 46.7002C92.0487 47.0086 90.0443 48.576 87.962 50.1833C82.3664 54.5021 81.7165 55.1625 82.6726 55.5573C82.8869 55.6458 86.0689 55.802 89.7437 55.9045C98.6779 56.1535 98.7367 56.166 98.1915 57.7056C97.725 59.0235 97.7947 59.5483 98.535 60.2859C99.2298 60.9783 100.884 61.6573 101.877 61.6573C104.485 61.6573 102.519 56.7973 97.0299 49.6742C94.1734 45.9674 93.6736 45.6452 92.4162 46.7002ZM99.4316 46.3586C99.4316 46.4878 99.7572 46.9966 100.155 47.4895C100.554 47.9824 101.84 50.2984 103.015 52.636C105.455 57.4914 105.721 57.7298 106.404 55.6782C106.926 54.1084 106.762 53.1986 105.651 51.5052C104.677 50.0193 102.339 47.7347 100.794 46.7583C99.7111 46.0739 99.4316 45.9921 99.4316 46.3586ZM18.7702 56.2383C17.3771 56.6653 15.5075 58.3895 14.7369 59.9575C12.983 63.5265 13.5496 66.8492 16.07 67.7736C16.6584 67.9896 17.2163 68.2308 17.3096 68.3098C17.4032 68.3885 17.631 69.242 17.8161 70.2062C18.0012 71.1704 18.3996 72.4963 18.7011 73.1527C19.9365 75.8416 23.5558 78.317 26.8626 78.7347C33.9134 79.6254 96.8032 79.8169 101.102 78.9608C105.572 78.0705 109.399 74.1777 109.801 70.1126C109.884 69.2748 110.031 68.4602 110.129 68.3024C110.227 68.1447 110.91 67.9449 111.647 67.8582C114.16 67.563 115.355 65.983 115.33 62.9888C115.306 60.0554 113.859 57.5522 111.492 56.3488C109.805 55.4911 109.231 55.9025 109.231 57.9701C109.231 60.4044 107.908 62.5408 105.844 63.4391C104.932 63.8361 104.263 63.9512 102.884 63.9486C100.804 63.9446 100.06 63.7602 96.3074 62.3182C90.6212 60.1335 87.2832 59.5465 80.6125 59.5583C76.3144 59.5658 75.0779 59.6451 72.929 60.0496C62.485 62.0166 54.944 66.3836 50.2074 73.2078C49.4085 74.3588 48.5965 75.331 48.4032 75.3681C48.1233 75.422 48.0248 75.1486 47.9195 74.0242C47.4335 68.8399 43.1987 64.2519 35.5013 60.5702C32.6651 59.2137 29.0256 57.8629 26.8087 57.3445C25.2869 56.9886 24.8337 57.177 23.9088 58.549C23.2237 59.5654 23.0458 60.9068 23.5317 61.3911C23.6787 61.5375 24.1328 61.6573 24.5408 61.6573C25.5056 61.6573 25.6638 62.1043 25.0495 63.0942C24.0148 64.7627 22.6322 65.0361 21.5338 63.7895C20.2218 62.3007 20.0864 59.9262 21.1779 57.5507C21.4846 56.8834 21.6728 56.2363 21.5959 56.1125C21.4004 55.7974 20.0058 55.8593 18.7702 56.2383ZM108.006 82.4226C107.639 82.6134 107.168 82.9234 106.96 83.1116C106.747 83.3029 105.864 83.5361 104.955 83.6411C103.068 83.859 25.7827 83.9167 22.5407 83.7028C20.7298 83.5834 20.3692 83.4988 20.3692 83.1935C20.3692 82.1962 18.6965 81.967 17.4633 82.7949C15.2779 84.2624 15.1284 87.6417 17.0787 91.4927C17.9751 93.2629 20.5884 95.875 22.183 96.5949C23.8937 97.3669 27.0996 97.5586 43.5312 97.872C63.246 98.2477 94.487 97.7552 103.077 96.9333C105.899 96.6632 106.744 96.3075 108.524 94.6421C111.07 92.2585 112.229 89.6067 112.082 86.4988C111.981 84.351 111.472 83.2332 110.256 82.4949C109.416 81.9843 108.883 81.9672 108.006 82.4226Z" fill="#E1017D"/>
</g>
<defs>
<filter id="filter0_d_340_59975" x="0" y="0" width="123" height="106" filterUnits="userSpaceOnUse" color-interpolation-filters="sRGB">
<feFlood flood-opacity="0" result="BackgroundImageFix"/>
<feColorMatrix in="SourceAlpha" type="matrix" values="0 0 0 0 0 0 0 0 0 0 0 0 0 0 0 0 0 0 127 0" result="hardAlpha"/>
<feOffset dy="4"/>
<feGaussianBlur stdDeviation="2"/>
<feComposite in2="hardAlpha" operator="out"/>
<feColorMatrix type="matrix" values="0 0 0 0 0 0 0 0 0 0 0 0 0 0 0 0 0 0 0.86 0"/>
<feBlend mode="normal" in2="BackgroundImageFix" result="effect1_dropShadow_340_59975"/>
<feBlend mode="normal" in="SourceGraphic" in2="effect1_dropShadow_340_59975" result="shape"/>
</filter>
</defs>
</svg>

<svg xmlns="http://www.w3.org/2000/svg" width="123" height="106" fill="none" viewBox="0 0 123 106"><g filter="url(#a)"><path fill="#e1017d" fill-rule="evenodd" d="M58.23.214C39.987 1.665 24.698 10.349 18.324 22.88c-3.157 6.206-3.458 11.695-.808 14.695 1.372 1.553 1.69 1.651 6.137 1.9 10.887.61 75.633.63 82.379.024 3.045-.273 4.495-1.266 5.65-3.867 1.618-3.644-.051-10.396-4.056-16.408-1.735-2.604-6.213-7.094-9.022-9.046C87.88 2.724 72.96-.957 58.23.214m45.266 42.366c-.275.11-.501.312-.501.449 0 .702 5.409 5.52 8.129 7.24 1.254.792 3.064 1.194 5.598 1.242 1.27.024 1.727-.053 2.016-.341.35-.349.35-.399-.002-.786-.207-.228-1.058-.787-1.891-1.242s-2.398-1.495-3.478-2.31c-3.261-2.466-4.31-3.098-6.099-3.672-2.127-.684-3.127-.837-3.772-.58m-84.797.59c-5.503.71-11.332 3.205-13.92 5.957L4 49.956l.78-.148a87 87 0 0 1 7.664-1.109l3.1-.316 2.914-1.473c1.602-.81 3.95-1.845 5.215-2.299 1.266-.454 2.296-.923 2.29-1.043-.024-.41-5.049-.684-7.264-.398m30.957.014c.122.124 1.626.748 3.34 1.387 8.069 3.006 12.49 6.054 14.473 9.978.418.828.933 1.57 1.143 1.65.21.081 1.594.041 3.074-.088 1.48-.13 3.534-.258 4.566-.285 1.123-.03 1.907-.147 1.956-.293.044-.134-.75-.879-1.764-1.654-2.677-2.046-5.284-4.27-8.152-6.955-2.786-2.608-3.548-3.086-5.5-3.445-1.805-.332-13.433-.593-13.136-.295m26.725.054c-1.96.078-3.739.22-3.953.317-.223.1-.39.417-.39.74 0 .432.797 1.35 3.429 3.952 3.432 3.392 4.482 4.202 5.129 3.955.19-.073.885-.896 1.545-1.83 1.156-1.636 3.023-3.534 5.445-5.536 2.012-1.665 1.625-1.84-3.939-1.779-2.037.023-5.306.104-7.266.181M34.623 45.6c-4.486.68-9.239 2.102-12.322 3.688-1.976 1.017-2.656 1.757-2.112 2.299.184.183 1.043.437 1.91.566 1.721.254 1.942.186 5.144-1.593.67-.372 1.526-.664 1.949-.664 1.15 0 .985.684-.553 2.294-.718.752-1.413 1.573-1.543 1.823-.47.903.31 1.335 2.993 1.66 4.02.486 30.468.718 34.544.302 1.457-.149 1.489-.435.173-1.59-2.184-1.914-9.873-5.323-16.35-7.249-6.187-1.838-9.448-2.2-13.833-1.536m57.793 1.1c-.367.309-2.372 1.876-4.454 3.483-5.596 4.32-6.246 4.98-5.29 5.374.215.089 3.397.245 7.072.347 8.934.25 8.993.262 8.448 1.802-.467 1.317-.397 1.842.343 2.58.695.692 2.349 1.371 3.342 1.371 2.608 0 .642-4.86-4.847-11.983-2.857-3.707-3.356-4.029-4.614-2.974m7.016-.341c0 .129.325.638.723 1.13.399.493 1.685 2.81 2.86 5.147 2.44 4.855 2.706 5.094 3.389 3.042.522-1.57.358-2.48-.753-4.173-.974-1.486-3.312-3.77-4.857-4.747-1.083-.684-1.362-.766-1.362-.4m-80.662 9.88c-1.393.426-3.262 2.15-4.033 3.719-1.754 3.569-1.187 6.891 1.333 7.816.588.216 1.146.457 1.24.536.093.078.321.932.506 1.896s.584 2.29.885 2.947c1.235 2.689 4.855 5.164 8.162 5.582 7.05.89 69.94 1.082 74.239.226 4.47-.89 8.297-4.783 8.699-8.848.083-.838.23-1.653.328-1.81s.781-.358 1.518-.445c2.513-.295 3.708-1.875 3.683-4.87-.024-2.933-1.471-5.436-3.838-6.64-1.687-.857-2.261-.445-2.261 1.622 0 2.434-1.323 4.57-3.387 5.47-.912.396-1.581.511-2.96.509-2.08-.004-2.824-.189-6.577-1.63-5.686-2.186-9.024-2.773-15.695-2.76-4.298.007-5.534.086-7.683.49-10.444 1.968-17.985 6.335-22.722 13.159-.799 1.15-1.61 2.123-1.804 2.16-.28.054-.378-.22-.483-1.344-.486-5.184-4.721-9.772-12.419-13.454-2.836-1.356-6.475-2.707-8.692-3.226-1.522-.355-1.975-.167-2.9 1.205-.685 1.016-.863 2.358-.377 2.842.147.147.6.266 1.009.266.965 0 1.123.447.508 1.437-1.034 1.669-2.417 1.942-3.515.695-1.312-1.488-1.448-3.863-.356-6.238.307-.668.495-1.315.418-1.439-.196-.315-1.59-.253-2.826.126m89.236 26.184c-.367.19-.838.5-1.046.689-.213.19-1.096.424-2.005.53-1.887.217-79.172.275-82.414.06-1.811-.119-2.172-.203-2.172-.508 0-.998-1.672-1.227-2.906-.4-2.185 1.468-2.335 4.848-.384 8.699.896 1.77 3.51 4.382 5.104 5.102 1.71.772 4.917.964 21.348 1.277 19.715.376 50.956-.117 59.546-.939 2.822-.27 3.667-.626 5.447-2.29 2.546-2.385 3.705-5.036 3.558-8.144-.101-2.148-.61-3.266-1.826-4.004-.84-.51-1.373-.528-2.25-.072" clip-rule="evenodd"/></g><defs><filter id="a" width="123" height="106" x="0" y="0" color-interpolation-filters="sRGB" filterUnits="userSpaceOnUse"><feFlood flood-opacity="0" result="BackgroundImageFix"/><feColorMatrix in="SourceAlpha" result="hardAlpha" values="0 0 0 0 0 0 0 0 0 0 0 0 0 0 0 0 0 0 127 0"/><feOffset dy="4"/><feGaussianBlur stdDeviation="2"/><feComposite in2="hardAlpha" operator="out"/><feColorMatrix values="0 0 0 0 0 0 0 0 0 0 0 0 0 0 0 0 0 0 0.86 0"/><feBlend in2="BackgroundImageFix" result="effect1_dropShadow_340_59975"/><feBlend in="SourceGraphic" in2="effect1_dropShadow_340_59975" result="shape"/></filter></defs></svg>
